X:110
T: Sheila Coyle's
Z: B.Black
R: reel
M: 4/4
L: 1/8
K: D
AG |: FA A2 FADF |ADFA BAFA |GBBA B3 d |ABdf edBA |
FA A2 FADF | ADFA BAFA | GABd AF (3FEF |EFGE FD D2 :|
df (3fef fgfe |dcdB AFDA |ce e2 fcec |BcdB AFDA |
df (3fef fgfe |dcdB AFDA |GABd AF (3FEF |EFGE FD D2 :|
